src/assets/img/icons/rotate_device/rotate_device.svg

<svg height="276" overflow="hidden" width="285" xmlns="http://www.w3.org/2000/svg" xmlns:xlink="http://www.w3.org/1999/xlink"><clipPath id="a"><path d="m0 0h285v276h-285z"/></clipPath><clipPath id="b"><path d="m0 0h285v276h-285z"/></clipPath><clipPath id="c"><path d="m0 0h285v275h-285z"/></clipPath><clipPath id="d"><path d="m0 0h285v275h-285z"/></clipPath><g clip-path="url(#a)"><g clip-path="url(#b)"><g clip-path="url(#c)"><g clip-path="url(#d)"><path d="m77.227 204.026h-56.0301c-.5611 0-1.0173-.456-1.0173-1.02v-133.2886c0-.5639.4562-1.0202 1.0173-1.0202h75.1838c.5639 0 1.0202.4563 1.0202 1.0202v76.4226h5.3531v-91.7138c0-6.1948-5.0216-11.2134-11.2163-11.2134h-2.5617c-.1616-.3486-.5101-.5951-.921-.5951h-9.7682c-.4109 0-.7594.2465-.921.5951h-51.5781c-6.1947 0-11.2162 5.0186-11.2162 11.2134v14.4864c-.3486.1644-.5923.5101-.5923.921v3.7066c0 .4109.2437.7595.5923.9182v4.3102c-.3486.1615-.5923.5101-.5923.921v3.7066c0 .4081.2437.7566.5923.9181v133.6457c0 6.194 5.0215 11.213 11.2162 11.213h51.4393zm-18.9015-153.5927c.9408 0 1.6974.7595 1.6974 1.6975 0 .9408-.7594 1.7003-1.6974 1.7003s-1.7003-.7623-1.7003-1.7003.7595-1.6975 1.7003-1.6975zm-5.9482 7.9857h12.7436c.564 0 1.0174.4562 1.0174 1.0173s-.4563 1.0174-1.0174 1.0174h-12.7436c-.5611 0-1.0202-.4563-1.0202-1.0174 0-.5639.4591-1.0173 1.0202-1.0173zm6.9655 166.5c-4.8713 0-8.833-3.958-8.833-8.83 0-4.871 3.9617-8.833 8.833-8.833 4.8742 0 8.8358 3.962 8.8358 8.833 0 4.872-3.9616 8.83-8.8358 8.83z" transform="scale(1.00571 1)"/><path d="m59.3853 209.209c-3.7463 0-6.7955 3.049-6.7955 6.792 0 3.75 3.0492 6.793 6.7955 6.793 3.7491 0 6.7955-3.043 6.7955-6.793 0-3.743-3.0492-6.792-6.7955-6.792z" transform="scale(1.00571 1)"/><path d="m95.4059 188.82c-3.7463 0-6.7955 3.049-6.7955 6.792 0 3.749 3.0492 6.799 6.7955 6.799s6.7951-3.05 6.7951-6.799c-.002-3.743-3.0488-6.792-6.7951-6.792z" transform="scale(1.00571 1)"/><path d="m268.282 213.644v-51.584c0-6.198-5.015-11.213-11.216-11.213h-14.486c-.156-.352-.507-.596-.918-.596h-3.707c-.408 0-.759.244-.912.596h-4.314c-.161-.352-.512-.596-.923-.596h-3.701c-.414 0-.76.244-.918.596h-133.6514c-6.1947 0-11.2134 5.018-11.2134 11.213v65.753c0 6.197 5.0187 11.213 11.2134 11.213h163.5304c6.201 0 11.216-5.018 11.216-11.213v-2.562c.349-.161.596-.507.596-.921v-9.768c0-.414-.247-.76-.596-.918zm-172.8761-9.196c-4.8713 0-8.8358-3.959-8.8358-8.836 0-4.868 3.9645-8.836 8.8358-8.836 4.8711 0 8.8361 3.968 8.8361 8.836-.003 4.877-3.965 8.836-8.8361 8.836zm147.3951 28.208c0 .564-.462 1.017-1.023 1.017h-133.291c-.564 0-1.018-.453-1.018-1.017v-75.187c0-.564.457-1.017 1.018-1.017h133.288c.561 0 1.023.453 1.023 1.017v75.187zm10.275-31.263c0 .558-.456 1.018-1.017 1.018s-1.017-.46-1.017-1.018v-12.743c0-.564.456-1.021 1.017-1.021s1.017.457 1.017 1.021zm6.283-5.101c-.935 0-1.701-.756-1.701-1.694s.766-1.701 1.701-1.701c.941 0 1.703.763 1.703 1.701s-.762 1.694-1.703 1.694z" transform="scale(1.00571 1)"/><path d="m125.77 76.7736-5.18 4.7948c27.159 2.7233 40.084 18.5526 46.16 31.6166 6.761 14.552 6.639 28.477 6.639 29.064l-.022 1.502h-4.075l.022-1.556c.012-.13.088-13.702-6.322-27.414-8.048-17.1959-22.268-26.9641-42.294-29.0979l4.545 4.9025-5.866-.2239-6.642-7.1695 7.169-6.6453z" transform="scale(1.00571 1)"/><g font-family="Helvetica Neue,Helvetica Neue_MSFontService,sans-serif" font-size="5" font-weight="700"><text transform="matrix(2.85 0 0 2.83381 0 326)">Created by Kelig Le Luron</text><text transform="matrix(2.85 0 0 2.83381 0 340)">from the Noun Project</text></g></g></g></g></g></svg>

<svg width="285" height="276" xmlns="http://www.w3.org/2000/svg" xmlns:xlink="http://www.w3.org/1999/xlink" xml:space="preserve" overflow="hidden"><defs><clipPath id="clip0"><rect x="0" y="0" width="285" height="276"/></clipPath><clipPath id="clip1"><rect x="0" y="0" width="285" height="276"/></clipPath><clipPath id="clip2"><rect x="0" y="0" width="285" height="275"/></clipPath><clipPath id="clip3"><rect x="0" y="0" width="285" height="275"/></clipPath></defs><g clip-path="url(#clip0)"><g clip-path="url(#clip1)"><g clip-path="url(#clip2)"><g clip-path="url(#clip3)"><path d="M77.227 204.026 21.1969 204.026C20.6358 204.026 20.1796 203.57 20.1796 203.006L20.1796 69.7174C20.1796 69.1535 20.6358 68.6972 21.1969 68.6972L96.3807 68.6972C96.9446 68.6972 97.4009 69.1535 97.4009 69.7174L97.4009 146.14 102.754 146.14 102.754 54.4262C102.754 48.2314 97.7324 43.2128 91.5377 43.2128L88.976 43.2128C88.8144 42.8642 88.4659 42.6177 88.055 42.6177L78.2868 42.6177C77.8759 42.6177 77.5274 42.8642 77.3658 43.2128L25.7877 43.2128C19.593 43.2128 14.5715 48.2314 14.5715 54.4262L14.5715 68.9126C14.2229 69.077 13.9792 69.4227 13.9792 69.8336L13.9792 73.5402C13.9792 73.9511 14.2229 74.2997 14.5715 74.4584L14.5715 78.7686C14.2229 78.9301 13.9792 79.2787 13.9792 79.6896L13.9792 83.3962C13.9792 83.8043 14.2229 84.1528 14.5715 84.3143L14.5715 217.96C14.5715 224.154 19.593 229.173 25.7877 229.173L77.227 229.173 77.227 204.026ZM58.3255 50.4333C59.2663 50.4333 60.0229 51.1928 60.0229 52.1308 60.0229 53.0716 59.2635 53.8311 58.3255 53.8311 57.3875 53.8311 56.6252 53.0688 56.6252 52.1308 56.6252 51.1928 57.3847 50.4333 58.3255 50.4333ZM52.3773 58.419 65.1209 58.419C65.6849 58.419 66.1383 58.8752 66.1383 59.4363 66.1383 59.9974 65.682 60.4537 65.1209 60.4537L52.3773 60.4537C51.8162 60.4537 51.3571 59.9974 51.3571 59.4363 51.3571 58.8724 51.8162 58.419 52.3773 58.419ZM59.3428 224.919C54.4715 224.919 50.5098 220.961 50.5098 216.089 50.5098 211.218 54.4715 207.256 59.3428 207.256 64.217 207.256 68.1786 211.218 68.1786 216.089 68.1786 220.961 64.217 224.919 59.3428 224.919Z" fill="#000000" fill-rule="nonzero" fill-opacity="1" transform="scale(1.00571 1)"/><path d="M59.3853 209.209C55.639 209.209 52.5898 212.258 52.5898 216.001 52.5898 219.751 55.639 222.794 59.3853 222.794 63.1344 222.794 66.1808 219.751 66.1808 216.001 66.1808 212.258 63.1316 209.209 59.3853 209.209Z" fill="#000000" fill-rule="nonzero" fill-opacity="1" transform="scale(1.00571 1)"/><path d="M95.4059 188.82C91.6596 188.82 88.6104 191.869 88.6104 195.612 88.6104 199.361 91.6596 202.411 95.4059 202.411 99.1522 202.411 102.201 199.361 102.201 195.612 102.199 191.869 99.1522 188.82 95.4059 188.82Z" fill="#000000" fill-rule="nonzero" fill-opacity="1" transform="scale(1.00571 1)"/><path d="M268.282 213.644 268.282 162.06C268.282 155.862 263.267 150.847 257.066 150.847L242.58 150.847C242.424 150.495 242.073 150.251 241.662 150.251L237.955 150.251C237.547 150.251 237.196 150.495 237.043 150.847L232.729 150.847C232.568 150.495 232.217 150.251 231.806 150.251L228.105 150.251C227.691 150.251 227.345 150.495 227.187 150.847L93.5356 150.847C87.3409 150.847 82.3222 155.865 82.3222 162.06L82.3222 227.813C82.3222 234.01 87.3409 239.026 93.5356 239.026L257.066 239.026C263.267 239.026 268.282 234.008 268.282 227.813L268.282 225.251C268.631 225.09 268.878 224.744 268.878 224.33L268.878 214.562C268.878 214.148 268.631 213.802 268.282 213.644ZM95.4059 204.448C90.5346 204.448 86.5701 200.489 86.5701 195.612 86.5701 190.744 90.5346 186.776 95.4059 186.776 100.277 186.776 104.242 190.744 104.242 195.612 104.239 200.489 100.277 204.448 95.4059 204.448ZM242.801 232.656C242.801 233.22 242.339 233.673 241.778 233.673L108.487 233.673C107.923 233.673 107.469 233.22 107.469 232.656L107.469 157.469C107.469 156.905 107.926 156.452 108.487 156.452L241.775 156.452C242.336 156.452 242.798 156.905 242.798 157.469L242.798 232.656ZM253.076 201.393C253.076 201.951 252.62 202.411 252.059 202.411 251.498 202.411 251.042 201.951 251.042 201.393L251.042 188.65C251.042 188.086 251.498 187.629 252.059 187.629 252.62 187.629 253.076 188.086 253.076 188.65L253.076 201.393ZM259.359 196.292C258.424 196.292 257.658 195.536 257.658 194.598 257.658 193.66 258.424 192.897 259.359 192.897 260.3 192.897 261.062 193.66 261.062 194.598 261.062 195.536 260.3 196.292 259.359 196.292Z" fill="#000000" fill-rule="nonzero" fill-opacity="1" transform="scale(1.00571 1)"/><path d="M125.77 76.7736 120.59 81.5684C147.749 84.2917 160.674 100.121 166.75 113.185 173.511 127.737 173.389 141.662 173.389 142.249L173.367 143.751 169.292 143.751 169.314 142.195C169.326 142.065 169.402 128.493 162.992 114.781 154.944 97.5851 140.724 87.8169 120.698 85.6831L125.243 90.5856 119.377 90.3617 112.735 83.1922 119.904 76.5469 125.77 76.7736Z" fill="#000000" fill-rule="nonzero" fill-opacity="1" transform="scale(1.00571 1)"/><text fill="#000000" fill-opacity="1" font-family="Helvetica Neue,Helvetica Neue_MSFontService,sans-serif" font-style="normal" font-variant="normal" font-weight="700" font-stretch="normal" font-size="5" text-anchor="start" direction="ltr" writing-mode="lr-tb" unicode-bidi="normal" text-decoration="none" transform="matrix(2.85 0 0 2.83381 0 326)">Created by Kelig Le Luron</text><text fill="#000000" fill-opacity="1" font-family="Helvetica Neue,Helvetica Neue_MSFontService,sans-serif" font-style="normal" font-variant="normal" font-weight="700" font-stretch="normal" font-size="5" text-anchor="start" direction="ltr" writing-mode="lr-tb" unicode-bidi="normal" text-decoration="none" transform="matrix(2.85 0 0 2.83381 0 340)">from the Noun Project</text></g></g></g></g></svg>
